my-portfolio/wwwroot/images/icon.svg

<?xml version="1.0" encoding="UTF-8" standalone="no"?>
<svg
   id="Layer_1"
   data-name="Layer 1"
   viewBox="0 0 1.125 1.1250061"
   width="24"
   height="24.00013"
   version="1.1"
   sodipodi:docname="icon.svg"
   inkscape:version="1.4.2 (ebf0e94, 2025-05-08)"
   xmlns:inkscape="http://www.inkscape.org/namespaces/inkscape"
   xmlns:sodipodi="http://sodipodi.sourceforge.net/DTD/sodipodi-0.dtd"
   xmlns="http://www.w3.org/2000/svg"
   xmlns:svg="http://www.w3.org/2000/svg">
  <defs
     id="defs1" />
  <sodipodi:namedview
     id="namedview1"
     pagecolor="#ffffff"
     bordercolor="#000000"
     borderopacity="0.25"
     inkscape:showpageshadow="2"
     inkscape:pageopacity="0.0"
     inkscape:pagecheckerboard="0"
     inkscape:deskcolor="#d1d1d1"
     inkscape:zoom="12.96875"
     inkscape:cx="14.342169"
     inkscape:cy="14.920482"
     inkscape:window-width="1366"
     inkscape:window-height="697"
     inkscape:window-x="-8"
     inkscape:window-y="-8"
     inkscape:window-maximized="1"
     inkscape:current-layer="g1" />
  <g
     id="g1">
    <g
       id="g2"
       transform="matrix(0.91304348,0,0,0.91304348,0.07031251,0.0703129)">
      <path
         d="m 0.65958138,0.31447311 c -0.01724,0 -0.0344821,0.006584 -0.047645,0.0197465 -0.0263261,0.0262811 -0.0263261,0.0690048 0,0.0952861 l 0.10359845,0.10359428 c 0.004223,0.004268 0.004223,0.0116826 0,0.015905 l -0.099687,0.099687 c -0.0263261,0.0262811 -0.0263261,0.0690048 0,0.0952861 0.0131633,0.0131633 0.0304145,0.0197219 0.0476656,0.0197219 v 4.492e-5 c 0.0172512,0 0.0345026,-0.006559 0.0476656,-0.0197219 l 0.099687,-0.0996869 c 0.05692,-0.05692 0.05692,-0.14951212 0,-0.20647703 L 0.7072224,0.33421962 c -0.0131633,-0.0131633 -0.030401,-0.0197465 -0.047641,-0.0197465 z"
         style="fill:#ff7766;fill-opacity:1;stroke-width:0.044925"
         id="path4"
         inkscape:label="path4" />
      <path
         d="m 0.41855924,0.31447311 c -0.01724,0 -0.0344821,0.006584 -0.047645,0.0197465 L 0.26727463,0.43785915 c -0.056875,0.05692 -0.056875,0.14951179 0,0.20643175 l 0.099687,0.099687 c 0.0131633,0.0131633 0.0304144,0.0197219 0.0476656,0.0197219 0.0172512,0 0.0345026,-0.006559 0.0476656,-0.0197219 h -8.985e-5 c 0.0263261,-0.0262811 0.0263261,-0.0690048 0,-0.0952861 L 0.36256068,0.5490501 c -0.004223,-0.004268 -0.004223,-0.0116826 0,-0.015905 L 0.46620026,0.42950553 c 0.0263261,-0.0262811 0.0263261,-0.0690048 0,-0.0952861 -0.0131633,-0.0131633 -0.030401,-0.0197465 -0.047641,-0.0197463 z"
         style="fill:#ffffff;fill-opacity:1;stroke-width:0.044925"
         id="path3" />
      <path
         d="M 0.53332446,5.4371579e-5 C 0.50416391,4.6787694e-4 0.47467654,0.00323981 0.44504289,0.00842022 0.20720998,0.05029032 0.02517436,0.24787109 0.00244231,0.48893859 -0.01161922,0.63768525 0.0353716,0.7797857 0.13479062,0.88899835 0.24418298,1.0092176 0.40842797,1.0781308 0.58547738,1.0781308 h 0.24555876 c 0.13625748,0 0.24708886,-0.11083139 0.24708886,-0.24708882 V 0.55367731 c 0,-0.16680649 -0.07269,-0.32350489 -0.19937798,-0.42988726 C 0.77986433,0.0407855 0.65968669,-0.00173749 0.53332446,5.4371579e-5 Z M 0.54037399,0.13484169 c 0.0921412,0 0.17960694,0.0316708 0.25166663,0.0921848 h 4.492e-5 c 0.0961398,0.0806853 0.15126435,0.19973771 0.15126435,0.32665082 v 0.2774099 c 0,0.0619067 -0.0504072,0.11231392 -0.11231392,0.11231392 H 0.58547738 c -0.13917763,0 -0.26707994,-0.0528756 -0.35099984,-0.14506159 C 0.16093536,0.7175194 0.1261654,0.61212248 0.13658801,0.50165192 0.15343488,0.32365907 0.29292743,0.17208443 0.4683595,0.14122097 c 0.0242145,-0.004268 0.0482494,-0.006379 0.0720145,-0.006379 z"
         style="fill:#ffffff;stroke-width:0.044925"
         id="path2" />
    </g>
  </g>
</svg>

<?xml version="1.0" encoding="UTF-8" standalone="no"?>
<!DOCTYPE svg PUBLIC "-//W3C//DTD SVG 1.1//EN" "http://www.w3.org/Graphics/SVG/1.1/DTD/svg11.dtd">
<svg width="100%" height="100%" viewBox="0 0 24 25" version="1.1" xmlns="http://www.w3.org/2000/svg" xmlns:xlink="http://www.w3.org/1999/xlink" xml:space="preserve" xmlns:serif="http://www.serif.com/" style="fill-rule:evenodd;clip-rule:evenodd;stroke-linejoin:round;stroke-miterlimit:2;">
    <g id="g1" transform="matrix(21.333333,0,0,21.333333,0,0)">
        <g id="path4" transform="matrix(0.913043,0,0,0.913043,0.070313,0.070313)">
            <path d="M0.66,0.314C0.642,0.314 0.625,0.321 0.612,0.334C0.586,0.361 0.586,0.403 0.612,0.43L0.716,0.533C0.72,0.537 0.72,0.545 0.716,0.549L0.616,0.649C0.59,0.675 0.59,0.718 0.616,0.744C0.629,0.757 0.646,0.764 0.664,0.764L0.664,0.764C0.681,0.764 0.698,0.757 0.711,0.744L0.811,0.644C0.868,0.587 0.868,0.495 0.811,0.438L0.707,0.334C0.694,0.321 0.677,0.314 0.66,0.314Z" style="fill:rgb(96,165,250);fill-rule:nonzero;"/>
        </g>
        <g id="path3" transform="matrix(0.913043,0,0,0.913043,0.070313,0.070313)">
            <path d="M0.419,0.314C0.401,0.314 0.384,0.321 0.371,0.334L0.267,0.438C0.21,0.495 0.21,0.587 0.267,0.644L0.367,0.744C0.38,0.757 0.397,0.764 0.415,0.764C0.432,0.764 0.449,0.757 0.462,0.744L0.462,0.744C0.489,0.718 0.489,0.675 0.462,0.649L0.363,0.549C0.358,0.545 0.358,0.537 0.363,0.533L0.466,0.43C0.493,0.403 0.493,0.361 0.466,0.334C0.453,0.321 0.436,0.314 0.419,0.314Z" style="fill:white;fill-rule:nonzero;"/>
        </g>
        <g id="path2" transform="matrix(0.913043,0,0,0.913043,0.070313,0.070313)">
            <path d="M0.533,0C0.504,0 0.475,0.003 0.445,0.008C0.207,0.05 0.025,0.248 0.002,0.489C-0.012,0.638 0.035,0.78 0.135,0.889C0.244,1.009 0.408,1.078 0.585,1.078L0.831,1.078C0.967,1.078 1.078,0.967 1.078,0.831L1.078,0.554C1.078,0.387 1.005,0.23 0.879,0.124C0.78,0.041 0.66,-0.002 0.533,0ZM0.54,0.135C0.633,0.135 0.72,0.167 0.792,0.227L0.792,0.227C0.888,0.308 0.943,0.427 0.943,0.554L0.943,0.831C0.943,0.893 0.893,0.943 0.831,0.943L0.585,0.943C0.446,0.943 0.318,0.891 0.234,0.798C0.161,0.718 0.126,0.612 0.137,0.502C0.153,0.324 0.293,0.172 0.468,0.141C0.493,0.137 0.517,0.135 0.54,0.135Z" style="fill:white;fill-rule:nonzero;"/>
        </g>
    </g>
</svg>
